build/img/icon-card.svg

<svg width="24" height="24" viewBox="0 0 24 24" fill="none" xmlns="http://www.w3.org/2000/svg">
<path fill-rule="evenodd" clip-rule="evenodd" d="M0 6C0 4.34315 1.34315 3 3 3H21C22.6569 3 24 4.34315 24 6V18C24 19.6569 22.6569 21 21 21H3C1.34314 21 0 19.6569 0 18V6ZM3 5C2.44772 5 2 5.44772 2 6V8H22V6C22 5.44771 21.5523 5 21 5H3ZM2 18V11H22V18C22 18.5523 21.5523 19 21 19H3C2.44772 19 2 18.5523 2 18ZM4 17H13V15H4V17Z" fill="currentColor"/>
</svg>

<svg width="24" height="24" viewBox="0 0 24 24" fill="none" xmlns="http://www.w3.org/2000/svg"><path fill-rule="evenodd" clip-rule="evenodd" d="M0 6a3 3 0 013-3h18a3 3 0 013 3v12a3 3 0 01-3 3H3a3 3 0 01-3-3V6zm3-1a1 1 0 00-1 1v2h20V6a1 1 0 00-1-1H3zM2 18v-7h20v7a1 1 0 01-1 1H3a1 1 0 01-1-1zm2-1h9v-2H4v2z" fill="currentColor"/></svg>
